X:1
T:Title
%%score { 1 | 2 }
L:1/8
Q:1/4=106
M:4/4
K:D
V:1 treble nm="Grand Piano"
V:2 bass 
V:1
 D4 F2 G2 | A4 F4 | G2 [FA]2 [GB]4 | z2 [FA]2 [GB]2 [Gc]2 | [Fd]4 [GB]4 |[M:6/4] .A6 d2 c2 B2 | %6
w: Erhard~Mauersberger * *||||||
 A4 [B,DF]2- [B,DF]2 [B,EG]2 [DFA]2 | .[DGB]6 [DFA]2 [B,EG]2 [B,DF]2 | %8
w: ||
[M:4/4][K:bass] [B,DE]4 [A,CE]4 | [F,D]8 |] %10
w: ||
V:2
 z4 D2 [B,D]2 | [A,C]4 [B,D]4 | [E,B,E]2 [D,D]2 [G,D]4 | z2 [D,D]2 [G,D]2 [E,G,]2 | %4
 [D,A,]4 [E,E]4 |[M:6/4][K:treble] .[F,CF]6 [B,F]2[K:bass] [F,A,F]2 [G,D]2 | %6
 [D,F,D]4 B,,2- B,,2 E,2 D,2 | .G,6 D,2 E,2 B,,2 |[M:4/4] G,,4 A,,4 | D,8 |] %10

